svgs/sharp-light/circle-calendar.svg

<svg xmlns="http://www.w3.org/2000/svg" viewBox="0 0 512 512"><!--! Font Awesome Pro 6.6.0 by @fontawesome - https://fontawesome.com License - https://fontawesome.com/license (Commercial License) Copyright 2024 Fonticons, Inc. --><path d="M480 256A224 224 0 1 0 32 256a224 224 0 1 0 448 0zM0 256a256 256 0 1 1 512 0A256 256 0 1 1 0 256zM224 96l0 16 0 16 64 0 0-16 0-16 32 0 0 16 0 16 32 0 32 0 0 32 0 32 0 32 0 128 0 32-32 0-192 0-32 0 0-32 0-128 0-32 0-32 0-32 32 0 32 0 0-16 0-16 32 0zm-32 64l-32 0 0 32 192 0 0-32-32 0-32 0-64 0-32 0zm160 64l-192 0 0 128 192 0 0-128z"/></svg>

<svg xmlns="http://www.w3.org/2000/svg" viewBox="0 0 512 512"><!--! Font Awesome Pro 6.4.0 by @fontawesome - https://fontawesome.com License - https://fontawesome.com/license (Commercial License) Copyright 2023 Fonticons, Inc. --><path d="M480 256A224 224 0 1 0 32 256a224 224 0 1 0 448 0zM0 256a256 256 0 1 1 512 0A256 256 0 1 1 0 256zM224 96v16 16h64V112 96h32v16 16h32 32v32 32 32V352v32H352 160 128V352 224 192 160 128h32 32V112 96h32zm-32 64H160v32H352V160H320 288 224 192zm160 64H160V352H352V224z"/></svg>
